X:1
T:Carson City, 87.87 D
T:Carson City, 87.87 D
T:James M. Sawers, 1885
T:Public Domain Courtesy of the Cyber Hymnal™
C:James M. Sawers, 1885
Z:Public Domain
Z:Courtesy of the Cyber Hymnal™
%%score ( 1 2 ) ( 3 4 )
L:1/8
Q:1/4=110
M:9/8
K:G
V:1 treble 
V:2 treble 
V:3 bass 
V:4 bass 
V:1
 (BA)[DG] | [B,D]3 [DB]3 (AG)[CE] | [B,D]3 [B,G]3 [CF]2 [CG] | [CA]3- [CA]2 [CD] [DG]2 [DA] | %4
 [DB]6 (BA)[DG] | [B,D]3 [DB]3 (AG)[CE] | [B,D]3 [B,G]3 [CF]2 [CG] | [CA]3- [CA]2 [CD] [DB]2 [CA] | %8
 [B,G]6 ([EG][^DF])[EG] | E3 [GB]3 (BA)[EG] | [^DG]3 [DF]3 [EG]2 [DF] | E3- E2 [EF] [EG]2 [EA] | %12
 [^DB]6 [A=d]2 [Ad] | [Bd]3 [Bd]2 [Ac] [GB]2 [DA] | [B,G]3 [B,D]3 [B,G]2 [CA] | %15
 [DB]3- [DB]2 [Dc] [DB]2 [CA] | [B,G]6 |] %17
V:2
 D2 x | x6 C2 x | x9 | x9 | x6 D2 x | x6 C2 x | x9 | x9 | x9 | E3 E2 x4 | x9 | E3- E2 x4 | x9 | %13
 x9 | x9 | x9 | x6 |] %17
V:3
 [G,,G,]2 [G,,G,] | [G,,G,]3 [G,,G,]3 [C,E,]2 [C,G,] | [G,,G,]3 [G,,G,]3 [D,A,]2 [D,G,] | %3
 [D,F,]3- [D,F,]2 [C,F,] [B,,G,]2 [D,F,] | G,6 [G,,G,]2 [G,,G,] | %5
 [G,,G,]3 [G,,G,]3 [C,E,]2 [C,G,] | [G,,G,]3 [G,,G,]3 [D,A,]2 [D,G,] | %7
 [D,F,]3- [D,F,]2 [D,F,] [D,G,]2 [D,F,] | [G,,G,]6 E,2 E, | E,3 E,3 E,2 E, | %10
 [B,,F,]3 [B,,F,]3 E,2 E, | E,3- E,2 E, E,2 [C,E,] | [B,,F,]6 [A,,F,]2 [A,,F,] | %13
 [G,,G,]3- [G,,G,]2 [G,,G,] [G,,G,]2 [G,,G,] | [G,,G,]3 [G,,G,]3 [B,,G,]2 [C,E,] | %15
 [D,G,]3- [D,G,]2 [D,G,] [D,G,]2 [D,F,] | [G,,G,]6 |] %17
V:4
 x3 | x9 | x9 | x9 | G,6 x3 | x9 | x9 | x9 | x6 E,2 E, | E,3 E,3 E,2 E, | x6 E,2 E, | %11
 E,3- E,2 E, E,2 x | x9 | x9 | x9 | x9 | x6 |] %17

